proprietary/assets/icons/geld-en-financien/teruggave-dividendbelasting.svg

<svg enable-background="new 0 0 64 64" viewBox="0 0 64 64" xmlns="http://www.w3.org/2000/svg"><path d="m0 0h64v64h-64z" fill="none"/><path d="m31.709 33.872c.665.222 1.393.155 2.004-.186l17.137-9.521 11.042 2.761 1.213-4.851-12-3c-.616-.154-1.266-.069-1.82.24l-17.039 9.466-16.957-5.652c-.963-.321-2.027-.027-2.688.745l-12 14 3.796 3.254 10.906-12.724z"/><path d="m8 40.305v16.695h12v-24.712l-3.988-1.33z"/><path d="m15.986 21.041 4.014 1.338v-10.379h-12v13.862l2.932-3.42c1.243-1.452 3.244-2.005 5.054-1.401z"/><path d="m38 33.821-3.217 1.787c-1.152.641-2.52.767-3.769.351l-5.014-1.671v22.712h9.148c-.113-2.078-.148-4.228-.148-6 0-3.208.105-7.662.606-10.666.26-1.564 1.149-2.903 2.394-3.77z"/><path d="m38 23.068v-20.068h-12v21.379l6.025 2.008z"/><path d="m51.64 16.94 4.36 1.09v-8.03h-12v9.734l4.217-2.343c1.043-.579 2.266-.741 3.423-.451z"/><path d="m44 35.208c2.373-.163 4.942-.208 7-.208 1.488 0 3.245.025 5 .099v-7.379l-4.84-1.21-7.16 3.978z"/><path d="m55.794 51.93c-.847 0-1.025.976-1.025 1.795 0 1.633.508 1.853 1.005 1.853.706 0 1.063-.552 1.063-1.641.001-1.799-.595-2.007-1.043-2.007z"/><path d="m46.225 46.307c-.863 0-1.044.976-1.044 1.795 0 1.632.518 1.853 1.024 1.853.863 0 1.044-.892 1.044-1.641.001-1.799-.584-2.007-1.024-2.007z"/><path d="m63.435 40.826c-.195-1.173-1.087-2.065-2.261-2.261-3.391-.565-9.044-.565-10.174-.565s-6.783 0-10.174.565c-1.173.196-2.065 1.088-2.26 2.261-.566 3.391-.566 9.044-.566 10.174s0 6.783.565 10.174c.195 1.173 1.087 2.065 2.26 2.261 3.392.565 9.045.565 10.175.565s6.783 0 10.174-.565c1.174-.196 2.066-1.088 2.261-2.261.565-3.391.565-9.044.565-10.174 0-3.393 0-6.783-.565-10.174zm-20.576 7.449c0-2.896 1.844-3.924 3.423-3.924 2.09 0 3.289 1.374 3.289 3.77 0 2.617-1.785 3.809-3.443 3.809-1.491 0-3.269-.634-3.269-3.655zm6.434 9.727-1.839-.727 5.232-13.277 1.839.727zm6.405-.449c-1.491 0-3.269-.634-3.269-3.655 0-2.896 1.844-3.924 3.423-3.924 2.09 0 3.289 1.374 3.289 3.77 0 2.631-1.729 3.809-3.443 3.809z"/></svg>

<?xml version="1.0" encoding="utf-8"?>
<!-- Generator: Adobe Illustrator 25.2.0, SVG Export Plug-In . SVG Version: 6.00 Build 0)  -->
<svg version="1.1" xmlns="http://www.w3.org/2000/svg" xmlns:xlink="http://www.w3.org/1999/xlink" x="0px" y="0px"
	 viewBox="0 0 64 64" style="enable-background:new 0 0 64 64;" xml:space="preserve">
<style type="text/css">
	.st0{fill:none;}
	.st1{fill:#B3B3B3;}
</style>
<g id="Box">
	<rect class="st0" width="64" height="64"/>
</g>
<g id="Icon">
	<g>
		<path d="M31.709,33.872c0.665,0.222,1.393,0.155,2.004-0.186l17.137-9.521l11.042,2.761l1.213-4.851l-12-3
			c-0.616-0.154-1.266-0.069-1.82,0.24l-17.039,9.466l-16.957-5.652c-0.963-0.321-2.027-0.027-2.688,0.745l-12,14l3.796,3.254
			l10.906-12.724L31.709,33.872z"/>
		<polygon points="8,40.305 8,57 20,57 20,32.288 16.012,30.958 		"/>
		<path d="M15.986,21.041L20,22.379V12H8v13.862l2.932-3.42C12.175,20.99,14.176,20.437,15.986,21.041z"/>
		<path d="M38,33.821l-3.217,1.787c-1.152,0.641-2.52,0.767-3.769,0.351L26,34.288V57h9.148C35.035,54.922,35,52.772,35,51
			c0-3.208,0.105-7.662,0.606-10.666c0.26-1.564,1.149-2.903,2.394-3.77V33.821z"/>
		<polygon points="38,23.068 38,3 26,3 26,24.379 32.025,26.387 		"/>
		<path d="M51.64,16.94L56,18.03V10H44v9.734l4.217-2.343C49.26,16.812,50.483,16.65,51.64,16.94z"/>
		<path d="M44,35.208C46.373,35.045,48.942,35,51,35c1.488,0,3.245,0.025,5,0.099V27.72l-4.84-1.21L44,30.488V35.208z"/>
		<path d="M55.794,51.93c-0.847,0-1.025,0.976-1.025,1.795c0,1.633,0.508,1.853,1.005,1.853c0.706,0,1.063-0.552,1.063-1.641
			C56.838,52.138,56.242,51.93,55.794,51.93z"/>
		<path d="M46.225,46.307c-0.863,0-1.044,0.976-1.044,1.795c0,1.632,0.518,1.853,1.024,1.853c0.863,0,1.044-0.892,1.044-1.641
			C47.25,46.515,46.665,46.307,46.225,46.307z"/>
		<path d="M63.435,40.826c-0.195-1.173-1.087-2.065-2.261-2.261C57.783,38,52.13,38,51,38c-1.13,0-6.783,0-10.174,0.565
			c-1.173,0.196-2.065,1.088-2.26,2.261C38,44.217,38,49.87,38,51c0,1.13,0,6.783,0.565,10.174c0.195,1.173,1.087,2.065,2.26,2.261
			C44.217,64,49.87,64,51,64s6.783,0,10.174-0.565c1.174-0.196,2.066-1.088,2.261-2.261C64,57.783,64,52.13,64,51
			C64,47.607,64,44.217,63.435,40.826z M42.859,48.275c0-2.896,1.844-3.924,3.423-3.924c2.09,0,3.289,1.374,3.289,3.77
			c0,2.617-1.785,3.809-3.443,3.809C44.637,51.93,42.859,51.296,42.859,48.275z M49.293,58.002l-1.839-0.727l5.232-13.277
			l1.839,0.727L49.293,58.002z M55.698,57.553c-1.491,0-3.269-0.634-3.269-3.655c0-2.896,1.844-3.924,3.423-3.924
			c2.09,0,3.289,1.374,3.289,3.77C59.141,56.375,57.412,57.553,55.698,57.553z"/>
	</g>
</g>
</svg>
